icons/file-list-3-line.svg

<svg viewBox="0 0 24 24" fill="currentColor" xmlns="http://www.w3.org/2000/svg"><path d="M19 22H5C3.34315 22 2 20.6569 2 19V3C2 2.44772 2.44772 2 3 2H17C17.5523 2 18 2.44772 18 3V15H22V19C22 20.6569 20.6569 22 19 22ZM18 17V19C18 19.5523 18.4477 20 19 20C19.5523 20 20 19.5523 20 19V17H18ZM16 20V4H4V19C4 19.5523 4.44772 20 5 20H16ZM6 7H14V9H6V7ZM6 11H14V13H6V11ZM6 15H11V17H6V15Z"/></svg>

<svg xmlns="http://www.w3.org/2000/svg" viewBox="0 0 24 24">
    <g>
        <path fill="none" d="M0 0h24v24H0z"/>
        <path d="M19 22H5a3 3 0 0 1-3-3V3a1 1 0 0 1 1-1h14a1 1 0 0 1 1 1v12h4v4a3 3 0 0 1-3 3zm-1-5v2a1 1 0 0 0 2 0v-2h-2zm-2 3V4H4v15a1 1 0 0 0 1 1h11zM6 7h8v2H6V7zm0 4h8v2H6v-2zm0 4h5v2H6v-2z"/>
    </g>
</svg>
